public/svgs/thin/microphone.svg

<svg xmlns="http://www.w3.org/2000/svg" viewBox="0 0 384 512"><!-- Font Awesome Pro 6.0.0-alpha2 by @fontawesome - https://fontawesome.com License - https://fontawesome.com/license (Commercial License) --><path d="M192 352C245.031 352 288 309.031 288 256V96C288 42.969 245.031 0 192 0S96 42.969 96 96V256C96 309.031 138.969 352 192 352ZM112 96C112 51.889 147.887 16 192 16S272 51.889 272 96V256C272 300.111 236.113 336 192 336S112 300.111 112 256V96ZM352 256V200C352 195.594 348.406 192 344 192S336 195.594 336 200V256C336 335.406 271.406 400 192 400S48 335.406 48 256V200C48 195.594 44.406 192 40 192S32 195.594 32 200V256C32 341.479 99.562 410.924 184 415.191V496H72C67.594 496 64 499.594 64 504S67.594 512 72 512H312C316.406 512 320 508.406 320 504S316.406 496 312 496H200V415.191C284.438 410.924 352 341.479 352 256Z"/></svg>

<svg xmlns="http://www.w3.org/2000/svg" viewBox="0 0 384 512"><!--! Font Awesome Pro 6.5.1 by @fontawesome - https://fontawesome.com License - https://fontawesome.com/license (Commercial License) Copyright 2023 Fonticons, Inc. --><path d="M272 96V256c0 44.2-35.8 80-80 80s-80-35.8-80-80V96c0-44.2 35.8-80 80-80s80 35.8 80 80zM96 96V256c0 53 43 96 96 96s96-43 96-96V96c0-53-43-96-96-96S96 43 96 96zM48 200c0-4.4-3.6-8-8-8s-8 3.6-8 8v56c0 85.7 67.4 155.6 152 159.8V496H104c-4.4 0-8 3.6-8 8s3.6 8 8 8h88 88c4.4 0 8-3.6 8-8s-3.6-8-8-8H200V415.8c84.6-4.2 152-74.1 152-159.8V200c0-4.4-3.6-8-8-8s-8 3.6-8 8v56c0 79.5-64.5 144-144 144s-144-64.5-144-144V200z"/></svg>
